X:102 
T:John Kelly's Slide 
B:CRE3.047 (SleamhnÃÂÃÂÃÂÃÂ¡n SheÃÂÃÂÃÂÃÂ¥in Ui Cheallaigh) 
F:file ID: cre.3/102john_k
R:slide
Q:180
M:12/8
L:1/8
K:D
e|:f2A ABA B2A dBd|c2B BAB g2g f2e|
f2A ABA B2A dBd|1 c3-c2B/c/ d3 d3:|\
[2 c3 c2B/c/ d3 d2||
e/f/|g3-gfe aff fed|Bee efe d2B BAB|
g2z gfe aff fed|Bee efa b3 a2f|
g3-gfe f3-fed|Bee efe d2B BAB|
g2z gfe aff fed|Bee efa b3 a2g||

%%%

